X: 265
T:Rosin The Beau
% Nottingham Music Database
S:EF
M:6/8
K:G
P:A
D|"G"G2G BAG|"G"d3 "C"efg|"G"dBG GAB|"Em"E3 "D7"E2D|
"G"G2G BAG|"G"d3 "C"efg|"G"dBG "D7"ABA|"G"G3 G2:|
P:B
d|"G"dBd def|"C"g2e g2e|"G"dBG GAB|"Em"E3 "D7"E2D|
"G"G2G BAG|"G"d3 "C"efg|"G"dBG "D7"ABA|"G"G3 G2:|<end>
<start>
